Yaru++/apps/scalable/dconf-editor.svg

<svg height="256" width="256" xmlns="http://www.w3.org/2000/svg" xmlns:xlink="http://www.w3.org/1999/xlink"><linearGradient id="a" gradientUnits="userSpaceOnUse" x1="88" x2="488" y1="88" y2="488"><stop offset="0" stop-opacity=".588235"/><stop offset="1" stop-opacity=".205556"/></linearGradient><filter id="b" color-interpolation-filters="sRGB" height="1.047976" width="1.048024" x="-.024012" y="-.023988"><feGaussianBlur stdDeviation="1.5307812"/></filter><linearGradient id="c" gradientTransform="matrix(0 -1 1 0 -28.11888 279.17176)" gradientUnits="userSpaceOnUse" x1="39.997299" x2="263.99731" y1="155.99969" y2="155.99969"><stop offset="0" stop-color="#f76363"/><stop offset="1" stop-color="#f22c42"/></linearGradient><filter id="d" color-interpolation-filters="sRGB" height="1.087725" width="1.105998" x="-.052999" y="-.043863"><feGaussianBlur stdDeviation="8.4801079"/></filter><filter id="e" color-interpolation-filters="sRGB" height="1.021931" width="1.0265" x="-.01325" y="-.010966"><feGaussianBlur stdDeviation="2.120027"/></filter><path d="m141.84323 74c-70.59344 0-78.18921 7.250835-77.84323 77.98706v146.01294 146.01294c-.34598 70.73623 7.24979 77.98706 77.84323 77.98706h292.31354c70.59344 0 79.78033-7.27652 77.84323-77.98706v-146.01294-146.01294c0-70.737067-7.24979-77.98706-77.84323-77.98706z" filter="url(#e)" opacity=".1" transform="matrix(.5 0 0 .5 -16.116488 -20.825537)"/><path d="m141.84323 74c-70.59344 0-78.18921 7.250835-77.84323 77.98706v146.01294 146.01294c-.34598 70.73623 7.24979 77.98706 77.84323 77.98706h292.31354c70.59344 0 79.78033-7.27652 77.84323-77.98706v-146.01294-146.01294c0-70.737067-7.24979-77.98706-77.84323-77.98706z" fill="url(#a)" filter="url(#d)" opacity=".3" transform="matrix(.5 0 0 .5 -16.116488 -20.825235)"/><path d="m53.695112 13.174463c-36.098811 0-39.983003 3.69016-39.806081 39.68984v74.310167 74.31016c-.176922 35.99969 3.70727 39.68984 39.806081 39.68984h148.387318c36.09881 0 40.77464-3.70276 39.80608-39.68984v-74.31016-74.310167c0-36.00011-3.70727-39.68984-39.80608-39.68984z" opacity=".1"/><path d="m54.805134 239.17447c-35.29673 0-39.09461-3.62542-38.92162-38.99353v-73.00647-73.006479c-.17299-35.36812 3.62489-38.99353 38.92162-38.99353h146.156756c35.29671 0 38.92161 3.625 38.92161 38.99353v73.006479 73.00647c0 35.36853-3.6249 38.99353-38.92161 38.99353z" fill="url(#c)"/><path d="m185.6287 80.764625-72.26904 72.269035-43.241442-43.25112-10.26609 10.29512 53.517202 53.50753 82.54481-82.535125z" fill="#fff" stroke="#fff" stroke-width="1.9"/><path d="m115.75838 61.174765c-35.298038 0-63.999993 28.70196-63.999993 64.000005 0 35.29804 28.701955 64 63.999993 64 15.45232 0 29.63935-5.50209 40.70897-14.64844l6.89063 6.89063-1.41406 1.41406 31.5 31.5 11.31445-11.3125-31.5-31.5-1.41406 1.41406-6.88086-6.88086c9.23157-11.09442 14.79492-25.34465 14.79492-40.87695 0-35.298045-28.70196-64.000005-63.99999-64.000005zm0 8.13672c30.90124 0 55.86327 24.96204 55.86327 55.863285 0 30.90124-24.96203 55.86523-55.86327 55.86523-30.901238 0-55.865223-24.96399-55.865223-55.86523 0-30.901245 24.963985-55.863285 55.865223-55.863285z" filter="url(#b)" opacity=".2"/><path d="m171.60086 179.17507-12.00001-12" fill="none" stroke="#666" stroke-width="11.999999"/><path d="m199.10086 206.67507-31.50001-31.5" fill="none" stroke="#3b3b3b" stroke-width="15.999999"/><circle cx="115.7581" cy="123.17508" fill="#fff" fill-opacity=".235294" r="59.932201" stroke="#545454" stroke-width="8.135592"/><path d="m54.805392 15.174463c-35.296728 0-39.09487 3.62603-38.92188 38.99414v2c-.17299-35.36811 3.625152-38.99414 38.92188-38.99414h146.156238c35.29673 0 38.92188 3.62561 38.92188 38.99414v-2c0-35.36853-3.62515-38.99414-38.92188-38.99414z" fill="#fff" opacity=".3"/><path d="m54.810792 239.17447c-35.296731 0-39.094875-3.62603-38.921885-38.99414v-2c-.17299 35.36811 3.625154 38.99414 38.921885 38.99414h146.156238c35.29673 0 38.92188-3.62561 38.92188-38.99414v2c0 35.36853-3.62515 38.99414-38.92188 38.99414z" opacity=".2"/></svg>

<?xml version="1.0" encoding="UTF-8" standalone="no"?>
<svg
   xmlns:dc="http://purl.org/dc/elements/1.1/"
   xmlns:cc="http://creativecommons.org/ns#"
   xmlns:rdf="http://www.w3.org/1999/02/22-rdf-syntax-ns#"
   xmlns:svg="http://www.w3.org/2000/svg"
   xmlns="http://www.w3.org/2000/svg"
   xmlns:xlink="http://www.w3.org/1999/xlink"
   xmlns:sodipodi="http://sodipodi.sourceforge.net/DTD/sodipodi-0.dtd"
   xmlns:inkscape="http://www.inkscape.org/namespaces/inkscape"
   width="256"
   height="256"
   version="1.0"
   id="svg60"
   sodipodi:docname="dconf-editor.svg"
   inkscape:version="0.92.4 (5da689c313, 2019-01-14)">
  <metadata
     id="metadata64">
    <rdf:RDF>
      <cc:Work
         rdf:about="">
        <dc:format>image/svg+xml</dc:format>
        <dc:type
           rdf:resource="http://purl.org/dc/dcmitype/StillImage" />
        <dc:title />
      </cc:Work>
    </rdf:RDF>
  </metadata>
  <sodipodi:namedview
     pagecolor="#ffffff"
     bordercolor="#666666"
     borderopacity="1"
     objecttolerance="10"
     gridtolerance="10"
     guidetolerance="10"
     inkscape:pageopacity="0"
     inkscape:pageshadow="2"
     inkscape:window-width="1920"
     inkscape:window-height="1016"
     id="namedview62"
     showgrid="false"
     inkscape:zoom="2.3602166"
     inkscape:cx="37.818191"
     inkscape:cy="124.90096"
     inkscape:window-x="0"
     inkscape:window-y="27"
     inkscape:window-maximized="1"
     inkscape:current-layer="svg60" />
  <defs
     id="defs38">
    <linearGradient
       id="a">
      <stop
         id="stop2"
         offset="0"
         stop-color="#68676b" />
      <stop
         id="stop4"
         offset=".8"
         stop-color="#424048" />
      <stop
         id="stop6"
         offset="1"
         stop-color="#241f31" />
    </linearGradient>
    <radialGradient
       id="d"
       cx="279.422"
       cy="446.483"
       r="224"
       fx="279.422"
       fy="446.483"
       gradientTransform="matrix(1.34416,6e-4,-6.2e-4,1.38763,-121.22,-718.103)"
       gradientUnits="userSpaceOnUse"
       xlink:href="#a" />
    <linearGradient
       id="e"
       x1="43.844"
       x2="-60"
       y1="234"
       y2="234"
       gradientTransform="matrix(1.0015,0,0,0.99993,72.09,56.015)"
       gradientUnits="userSpaceOnUse"
       xlink:href="#b" />
    <linearGradient
       id="b">
      <stop
         id="stop11"
         offset="0"
         stop-color="#d5d3cf" />
      <stop
         id="stop13"
         offset=".038"
         stop-color="#e3e2df" />
      <stop
         id="stop15"
         offset=".077"
         stop-color="#c0bfbc" />
      <stop
         id="stop17"
         offset=".923"
         stop-color="#c0bfbc" />
      <stop
         id="stop19"
         offset=".962"
         stop-color="#e3e2df" />
      <stop
         id="stop21"
         offset="1"
         stop-color="#d5d3cf" />
    </linearGradient>
    <linearGradient
       id="linearGradient1007"
       x1="160.305"
       x2="161.33"
       y1="240.139"
       y2="135.579"
       gradientTransform="matrix(0.54625232,0,0,0.54625232,-6.0941965,-68.413544)"
       gradientUnits="userSpaceOnUse"
       xlink:href="#linearGradient1018" />
    <linearGradient
       id="linearGradient1018">
      <stop
         id="stop2-3"
         offset="0"
         style="stop-color:#37a6e6" />
      <stop
         id="stop4-6"
         offset="1"
         style="stop-color:#1a7fd4" />
    </linearGradient>
    <clipPath
       id="clipPath1082-3"
       clipPathUnits="userSpaceOnUse">
      <path
         d="M 361.9375,-212 C 507.2348,-212 528,-191.28677 528,-46.125 V 70.125 C 528,215.28618 507.2348,236 361.9375,236 H 214.0625 C 68.7652,236 48,215.28618 48,70.125 V -46.125 C 48,-191.28677 68.7652,-212 214.0625,-212 Z"
         style="fill:#8c59d9"
         id="path19" />
    </clipPath>
    <linearGradient
       id="linearGradient4358"
       x1="88"
       x2="488"
       y1="88"
       y2="488"
       gradientUnits="userSpaceOnUse"
       xlink:href="#linearGradient4360" />
    <linearGradient
       id="linearGradient4360">
      <stop
         id="stop4362"
         offset="0"
         style="stop-color:#000000;stop-opacity:0.58823532" />
      <stop
         id="stop4366"
         offset="1"
         style="stop-color:#000000;stop-opacity:0.20555556" />
    </linearGradient>
    <filter
       style="color-interpolation-filters:sRGB"
       id="filter4380"
       width="1.106"
       height="1.088"
       x="-.05"
       y="-.04">
      <feGaussianBlur
         id="feGaussianBlur4382"
         stdDeviation="8.48" />
    </filter>
    <filter
       style="color-interpolation-filters:sRGB"
       id="filter4346"
       width="1.026"
       height="1.022"
       x="-.01"
       y="-.01">
      <feGaussianBlur
         id="feGaussianBlur4348"
         stdDeviation="2.12" />
    </filter>
    <linearGradient
       id="linearGradient1675"
       x1="12.73"
       x2="115.626"
       y1="270.628"
       y2="269.777"
       gradientUnits="userSpaceOnUse"
       xlink:href="#linearGradient1703" />
    <linearGradient
       id="linearGradient1703">
      <stop
         id="stop1691"
         offset="0"
         stop-color="#d5d3cf" />
      <stop
         id="stop1693"
         offset=".036"
         stop-color="#e4e1de" />
      <stop
         id="stop1695"
         offset=".071"
         stop-color="#d5d3cf" />
      <stop
         style="stop-color:#d5d3cf"
         id="stop1697"
         offset=".929"
         stop-color="#d5d3cf" />
      <stop
         style="stop-color:#e3e0dd"
         id="stop1699"
         offset=".964"
         stop-color="#e4e1de" />
      <stop
         style="stop-color:#dddbd7"
         id="stop1701"
         offset="1"
         stop-color="#d5d3cf" />
    </linearGradient>
    <filter
       style="color-interpolation-filters:sRGB"
       id="filter1027"
       width="1.048"
       height="1.048"
       x="-0.02"
       y="-0.02">
      <feGaussianBlur
         id="feGaussianBlur1029"
         stdDeviation="1.531" />
    </filter>
    <linearGradient
       id="linearGradient4358-3"
       x1="88"
       x2="488"
       y1="88"
       y2="488"
       gradientTransform="rotate(-90,287.9946,298)"
       gradientUnits="userSpaceOnUse"
       xlink:href="#linearGradient4360-6" />
    <linearGradient
       id="linearGradient4360-6">
      <stop
         id="stop4362-7"
         offset="0"
         style="stop-color:#000000;stop-opacity:0.58823532" />
      <stop
         style="stop-color:#000000;stop-opacity:0"
         id="stop4364"
         offset=".88" />
      <stop
         id="stop4366-5"
         offset="1"
         style="stop-color:#000000" />
    </linearGradient>
    <filter
       style="color-interpolation-filters:sRGB"
       id="filter4380-3"
       width="1.1059999"
       height="1.0880001"
       x="-0.050000001"
       y="-0.039999999">
      <feGaussianBlur
         id="feGaussianBlur4382-5"
         stdDeviation="8.48" />
    </filter>
    <filter
       style="color-interpolation-filters:sRGB"
       id="filter4346-6"
       width="1.026"
       height="1.022"
       x="-0.0099999998"
       y="-0.0099999998">
      <feGaussianBlur
         id="feGaussianBlur4348-2"
         stdDeviation="2.12" />
    </filter>
    <linearGradient
       id="linearGradient974">
      <stop
         offset="0"
         id="stop962"
         style="stop-color:#babdb6" />
      <stop
         style="stop-color:#f6f5f4"
         offset=".042"
         id="stop964" />
      <stop
         offset=".083"
         id="stop966"
         style="stop-color:#d5d3cf" />
      <stop
         style="stop-color:#deddda"
         offset=".917"
         id="stop968" />
      <stop
         offset=".958"
         id="stop970"
         style="stop-color:#f6f5f4" />
      <stop
         offset="1"
         id="stop972"
         style="stop-color:#babdb6" />
    </linearGradient>
    <linearGradient
       xlink:href="#linearGradient974"
       gradientUnits="userSpaceOnUse"
       gradientTransform="matrix(0.25,0,0,0.25,-110,225)"
       y2="44"
       y1="44"
       x2="464"
       x1="48"
       id="linearGradient1747" />
    <clipPath
       clipPathUnits="userSpaceOnUse"
       id="clipPath1784">
      <rect
         id="rect982"
         ry="14"
         rx="14"
         y="202"
         x="36"
         height="28"
         width="60"
         style="fill:#3584e4" />
    </clipPath>
    <filter
       y="-.07"
       x="-.05"
       height="1.136"
       width="1.109"
       id="filter1498"
       style="color-interpolation-filters:sRGB">
      <feGaussianBlur
         stdDeviation="1.36"
         id="feGaussianBlur1500" />
    </filter>
    <filter
       y="-.07"
       x="-.05"
       height="1.136"
       width="1.109"
       id="filter1502"
       style="color-interpolation-filters:sRGB">
      <feGaussianBlur
         stdDeviation="1.36"
         id="feGaussianBlur1504" />
    </filter>
    <linearGradient
       xlink:href="#linearGradient3797-5"
       gradientUnits="userSpaceOnUse"
       gradientTransform="rotate(-90,126.52644,152.64532)"
       y2="156"
       y1="156"
       x2="263.997"
       x1="39.997"
       id="linearGradient1694" />
    <linearGradient
       id="linearGradient3797-5">
      <stop
         style="stop-color:#f7f7f7"
         offset="0"
         id="stop3801" />
      <stop
         style="stop-color:#e6e6e6"
         offset="1"
         id="stop3799" />
    </linearGradient>
    <filter
       y="-.04"
       x="-.05"
       height="1.088"
       width="1.106"
       id="filter4380-2"
       style="color-interpolation-filters:sRGB">
      <feGaussianBlur
         stdDeviation="8.48"
         id="feGaussianBlur4382-7" />
    </filter>
    <filter
       y="-.01"
       x="-.01"
       height="1.022"
       width="1.026"
       id="filter4346-0"
       style="color-interpolation-filters:sRGB">
      <feGaussianBlur
         stdDeviation="2.12"
         id="feGaussianBlur4348-9" />
    </filter>
    <filter
       style="color-interpolation-filters:sRGB"
       id="filter1027-3"
       width="1.048"
       height="1.048"
       x="-0.02"
       y="-0.02">
      <feGaussianBlur
         id="feGaussianBlur1029-6"
         stdDeviation="1.531" />
    </filter>
    <filter
       inkscape:collect="always"
       style="color-interpolation-filters:sRGB"
       id="filter1027-36"
       x="-0.024012255"
       width="1.0480245"
       y="-0.023987759"
       height="1.0479755">
      <feGaussianBlur
         inkscape:collect="always"
         stdDeviation="1.5307812"
         id="feGaussianBlur1029-7" />
    </filter>
    <linearGradient
       inkscape:collect="always"
       xlink:href="#linearGradient16491"
       id="linearGradient1694-5"
       x1="39.997299"
       y1="155.99969"
       x2="263.99731"
       y2="155.99969"
       gradientUnits="userSpaceOnUse"
       gradientTransform="rotate(-90,125.52644,153.64532)" />
    <linearGradient
       id="linearGradient16491">
      <stop
         style="stop-color:#f76363;stop-opacity:1"
         offset="0"
         id="stop16487" />
      <stop
         style="stop-color:#f22c42;stop-opacity:1"
         offset="1"
         id="stop16489" />
    </linearGradient>
    <filter
       inkscape:collect="always"
       style="color-interpolation-filters:sRGB"
       id="filter4380-29"
       x="-0.052999184"
       width="1.1059984"
       y="-0.043862626"
       height="1.0877253">
      <feGaussianBlur
         inkscape:collect="always"
         stdDeviation="8.4801079"
         id="feGaussianBlur4382-1" />
    </filter>
    <filter
       inkscape:collect="always"
       style="color-interpolation-filters:sRGB"
       id="filter4346-2"
       x="-0.013249796"
       width="1.0264996"
       y="-0.010965657"
       height="1.0219313">
      <feGaussianBlur
         inkscape:collect="always"
         stdDeviation="2.120027"
         id="feGaussianBlur4348-7" />
    </filter>
  </defs>
  <path
     style="color:#000000;display:inline;overflow:visible;visibility:visible;opacity:0.1;fill:#000000;fill-opacity:1;fill-rule:nonzero;stroke:none;stroke-width:2;marker:none;filter:url(#filter4346-2);enable-background:accumulate"
     d="M 141.84323,74 C 71.24979,74 63.65402,81.250835 64,151.98706 V 298 444.01294 C 63.65402,514.74917 71.24979,522 141.84323,522 H 434.15677 C 504.75021,522 513.9371,514.72348 512,444.01294 V 298 151.98706 C 512,81.249993 504.75021,74 434.15677,74 Z"
     id="rect4158-9"
     inkscape:connector-curvature="0"
     sodipodi:nodetypes="scccssscsss"
     transform="matrix(0.5,0,0,0.5,-16.116488,-20.825537)" />
  <path
     sodipodi:nodetypes="scccssscsss"
     inkscape:connector-curvature="0"
     id="path4350"
     d="M 141.84323,74 C 71.24979,74 63.65402,81.250835 64,151.98706 V 298 444.01294 C 63.65402,514.74917 71.24979,522 141.84323,522 H 434.15677 C 504.75021,522 513.9371,514.72348 512,444.01294 V 298 151.98706 C 512,81.249993 504.75021,74 434.15677,74 Z"
     style="color:#000000;display:inline;overflow:visible;visibility:visible;opacity:0.3;fill:url(#linearGradient4358);fill-opacity:1;fill-rule:nonzero;stroke:none;stroke-width:2;marker:none;filter:url(#filter4380-29);enable-background:accumulate"
     transform="matrix(0.5,0,0,0.5,-16.116488,-20.825235)" />
  <path
     style="color:#000000;display:inline;overflow:visible;visibility:visible;opacity:0.1;fill:#000000;fill-opacity:1;fill-rule:nonzero;stroke:none;stroke-width:1.02028775;marker:none;enable-background:accumulate"
     d="m 53.695112,13.174463 c -36.098811,0 -39.983003,3.69016 -39.806081,39.68984 v 74.310167 74.31016 c -0.176922,35.99969 3.70727,39.68984 39.806081,39.68984 H 202.08243 c 36.09881,0 40.77464,-3.70276 39.80608,-39.68984 V 127.17447 52.864303 c 0,-36.00011 -3.70727,-39.68984 -39.80608,-39.68984 z"
     id="rect4158-7"
     inkscape:connector-curvature="0"
     sodipodi:nodetypes="scccssscsss" />
  <path
     style="color:#000000;display:inline;overflow:visible;visibility:visible;fill:url(#linearGradient1694-5);fill-opacity:1;fill-rule:nonzero;stroke:none;stroke-width:1;marker:none;enable-background:accumulate"
     d="m 54.805134,239.17447 c -35.29673,0 -39.09461,-3.62542 -38.92162,-38.99353 V 127.17447 54.167991 c -0.17299,-35.36812 3.62489,-38.99353 38.92162,-38.99353 H 200.96189 c 35.29671,0 38.92161,3.625 38.92161,38.99353 v 73.006479 73.00647 c 0,35.36853 -3.6249,38.99353 -38.92161,38.99353 z"
     id="rect4158"
     inkscape:connector-curvature="0"
     sodipodi:nodetypes="scccssscsss" />
  <path
     id="path917"
     overflow="visible"
     font-weight="400"
     style="color:#000000;font-weight:400;line-height:normal;font-family:sans-serif;font-variant-ligatures:normal;font-variant-position:normal;font-variant-caps:normal;font-variant-numeric:normal;font-variant-alternates:normal;font-feature-settings:normal;text-indent:0;text-align:start;text-decoration:none;text-decoration-line:none;text-decoration-style:solid;text-decoration-color:#000000;text-transform:none;text-orientation:mixed;white-space:normal;shape-padding:0;display:inline;overflow:visible;isolation:auto;mix-blend-mode:normal;fill:#ffffff;fill-opacity:1;stroke:#ffffff;stroke-width:1.89999998;stroke-miterlimit:4;stroke-dasharray:none;stroke-opacity:1;marker:none;enable-background:new"
     d="m 185.6287,80.764625 -72.26904,72.269035 -43.241442,-43.25112 -10.26609,10.29512 53.517202,53.50753 82.54481,-82.535125 z"
     inkscape:connector-curvature="0" />
  <path
     style="color:#000000;font-style:normal;font-variant:normal;font-weight:normal;font-stretch:normal;font-size:medium;line-height:normal;font-family:sans-serif;font-variant-ligatures:normal;font-variant-position:normal;font-variant-caps:normal;font-variant-numeric:normal;font-variant-alternates:normal;font-feature-settings:normal;text-indent:0;text-align:start;text-decoration:none;text-decoration-line:none;text-decoration-style:solid;text-decoration-color:#000000;letter-spacing:normal;word-spacing:normal;text-transform:none;writing-mode:lr-tb;direction:ltr;text-orientation:mixed;dominant-baseline:auto;baseline-shift:baseline;text-anchor:start;white-space:normal;shape-padding:0;clip-rule:nonzero;display:inline;overflow:visible;visibility:visible;opacity:0.2;isolation:auto;mix-blend-mode:normal;color-interpolation:sRGB;color-interpolation-filters:linearRGB;solid-color:#000000;solid-opacity:1;vector-effect:none;fill:#000000;fill-opacity:1;fill-rule:nonzero;stroke:none;stroke-width:11.99999905;stroke-linecap:butt;stroke-linejoin:miter;stroke-miterlimit:4;stroke-dasharray:none;stroke-dashoffset:0;stroke-opacity:1;marker:none;filter:url(#filter1027-36);color-rendering:auto;image-rendering:auto;shape-rendering:auto;text-rendering:auto;enable-background:accumulate"
     d="m 115.75838,61.174765 c -35.298038,0 -63.999993,28.70196 -63.999993,64.000005 0,35.29804 28.701955,64 63.999993,64 15.45232,0 29.63935,-5.50209 40.70897,-14.64844 l 6.89063,6.89063 -1.41406,1.41406 31.5,31.5 11.31445,-11.3125 -31.5,-31.5 -1.41406,1.41406 -6.88086,-6.88086 c 9.23157,-11.09442 14.79492,-25.34465 14.79492,-40.87695 0,-35.298045 -28.70196,-64.000005 -63.99999,-64.000005 z m 0,8.13672 c 30.90124,0 55.86327,24.96204 55.86327,55.863285 0,30.90124 -24.96203,55.86523 -55.86327,55.86523 -30.901238,0 -55.865223,-24.96399 -55.865223,-55.86523 0,-30.901245 24.963985,-55.863285 55.865223,-55.863285 z"
     id="path1001"
     inkscape:connector-curvature="0" />
  <path
     sodipodi:nodetypes="cc"
     inkscape:connector-curvature="0"
     id="path4480"
     d="m 171.60086,179.17507 -12.00001,-12"
     style="color:#000000;display:inline;overflow:visible;visibility:visible;opacity:1;fill:none;fill-opacity:0;fill-rule:nonzero;stroke:#666666;stroke-width:11.99999905;stroke-linecap:butt;stroke-linejoin:miter;stroke-miterlimit:4;stroke-dasharray:none;stroke-dashoffset:0;stroke-opacity:1;marker:none;enable-background:accumulate" />
  <path
     style="color:#000000;display:inline;overflow:visible;visibility:visible;opacity:1;fill:none;fill-opacity:0;fill-rule:nonzero;stroke:#3b3b3b;stroke-width:15.99999905;stroke-linecap:butt;stroke-linejoin:miter;stroke-miterlimit:4;stroke-dasharray:none;stroke-dashoffset:0;stroke-opacity:1;marker:none;enable-background:accumulate"
     d="m 199.10086,206.67507 -31.50001,-31.5"
     id="path4478"
     inkscape:connector-curvature="0"
     sodipodi:nodetypes="cc" />
  <circle
     style="color:#000000;display:inline;overflow:visible;visibility:visible;opacity:1;fill:#ffffff;fill-opacity:0.23529412;fill-rule:nonzero;stroke:#545454;stroke-width:8.13559246;stroke-linecap:butt;stroke-linejoin:miter;stroke-miterlimit:4;stroke-dasharray:none;stroke-dashoffset:0;stroke-opacity:1;marker:none;enable-background:accumulate"
     id="path4260"
     cx="115.7581"
     cy="123.17508"
     r="59.932201" />
  <path
     style="color:#000000;display:inline;overflow:visible;visibility:visible;opacity:0.3;fill:#ffffff;fill-opacity:1;fill-rule:nonzero;stroke:none;stroke-width:1;marker:none;enable-background:accumulate"
     d="m 54.805392,15.174463 c -35.296728,0 -39.09487,3.62603 -38.92188,38.99414 v 2 c -0.17299,-35.36811 3.625152,-38.99414 38.92188,-38.99414 H 200.96163 c 35.29673,0 38.92188,3.62561 38.92188,38.99414 v -2 c 0,-35.36853 -3.62515,-38.99414 -38.92188,-38.99414 z"
     id="path931"
     inkscape:connector-curvature="0"
     sodipodi:nodetypes="sccsscsss" />
  <path
     style="color:#000000;display:inline;overflow:visible;visibility:visible;opacity:0.2;fill:#000000;fill-opacity:1;fill-rule:nonzero;stroke:none;stroke-width:1;marker:none;enable-background:accumulate"
     d="m 54.810792,239.17447 c -35.296731,0 -39.094875,-3.62603 -38.921885,-38.99414 v -2 c -0.17299,35.36811 3.625154,38.99414 38.921885,38.99414 H 200.96703 c 35.29673,0 38.92188,-3.62561 38.92188,-38.99414 v 2 c 0,35.36853 -3.62515,38.99414 -38.92188,38.99414 z"
     id="path931-8"
     inkscape:connector-curvature="0"
     sodipodi:nodetypes="sccsscsss" />
</svg>
